X: 38
T:Waltz,A. HS.38
M:3/8
Q:30
S:Henry Stables MS,Cumbria,late19thC
R:Waltz
O:Walthwaite,nr.Ambleside.
A:England
Z:vmp.Chris Partington
K:G
d|gfe|edB|dcA|edB|gfe|edB|dcA|G2::!
B|dcA|edB|dcB|edB|gfe|edB|dcAG2::!
B|dba|gBd|cAf|gbd|dba|gBd|cAf|g2::!
B|cAf|gbc|cAf|gbB|dba|gBd|cAf|g2:||
